!!!OTL: Xingfu Huar,biandixiang
!!!ARE: Asia, China,ÿNingxia Yanchi
!! I, 160, 2)
!!!SCT: C1827
!!!YEM: Copyright 1995, estate of Helmut Schaffrath.
**kern
*ICvox
*Ivox
*M2/4
*k[b-]
*F:
{16ff
16dd
4cc
16dd
16cc
=1
8b-
16a
16g
8f
8c
=2
8g
8cc
8cc
16b-
16g
=3
8f
16b-
16a
4g
=4
8g
8cc
8cc
16b-
16g
=5
8f
16b-
16a
4g}
=6
{8cc
4cc
8f
=7
16b-
16cc
16b-
16g
8f
8d
=8
8c
4c
8f
=9
2c}
=10
{8.f
16g
8cc
16dd
16cc
=11
8b-
16a
16g
8f
8c
=12
8cc
4cc
8f
=13
16b-
16cc
16b-
16g
8f
8d
=14
8c
4c
8f
=15
2c}
==
!!!AGN: Xiaodiao, Chujiamen
!! Han
!!!ONB: ESAC (Essen Associative Code) Database: SENGANSU
!!!AMT: simple duple
!!!AIN: vox
!!!EED: Helmut Schaffrath
!!!EEV: 1.0
*-
